assets/img/icons/duotone-icons/Code/Backspace.svg

<?xml version="1.0" encoding="UTF-8"?>
<svg width="24px" height="24px" viewBox="0 0 24 24" version="1.1" xmlns="http://www.w3.org/2000/svg" xmlns:xlink="http://www.w3.org/1999/xlink">
    <!-- Generator: Sketch 52.2 (67145) - http://www.bohemiancoding.com/sketch -->
    <title>Stockholm-icons / Code / Backspace</title>
    <desc>Created with Sketch.</desc>
    <g id="Stockholm-icons-/-Code-/-Backspace" stroke="none" stroke-width="1" fill="none" fill-rule="evenodd">
        <rect id="bound" x="0" y="0" width="24" height="24"></rect>
        <path d="M8.42034438,20 L21,20 C22.1045695,20 23,19.1045695 23,18 L23,6 C23,4.8954305 22.1045695,4 21,4 L8.42034438,4 C8.15668432,4 7.90369297,4.10412727 7.71642146,4.28972363 L0.653241109,11.2897236 C0.260966303,11.6784895 0.25812177,12.3116481 0.646887666,12.7039229 C0.648995955,12.7060502 0.651113791,12.7081681 0.653241109,12.7102764 L7.71642146,19.7102764 C7.90369297,19.8958727 8.15668432,20 8.42034438,20 Z" id="Combined-Shape" fill="#335EEA" opacity="0.3"></path>
        <path d="M12.5857864,12 L11.1715729,10.5857864 C10.7810486,10.1952621 10.7810486,9.56209717 11.1715729,9.17157288 C11.5620972,8.78104858 12.1952621,8.78104858 12.5857864,9.17157288 L14,10.5857864 L15.4142136,9.17157288 C15.8047379,8.78104858 16.4379028,8.78104858 16.8284271,9.17157288 C17.2189514,9.56209717 17.2189514,10.1952621 16.8284271,10.5857864 L15.4142136,12 L16.8284271,13.4142136 C17.2189514,13.8047379 17.2189514,14.4379028 16.8284271,14.8284271 C16.4379028,15.2189514 15.8047379,15.2189514 15.4142136,14.8284271 L14,13.4142136 L12.5857864,14.8284271 C12.1952621,15.2189514 11.5620972,15.2189514 11.1715729,14.8284271 C10.7810486,14.4379028 10.7810486,13.8047379 11.1715729,13.4142136 L12.5857864,12 Z" id="Combined-Shape" fill="#335EEA"></path>
    </g>
</svg>

<svg width="24" height="24" viewBox="0 0 24 24" xmlns="http://www.w3.org/2000/svg"><g fill="none" fill-rule="evenodd"><path d="M0 0h24v24H0z"/><path d="M8.42 20H21a2 2 0 002-2V6a2 2 0 00-2-2H8.42a1 1 0 00-.704.29l-7.063 7a1 1 0 000 1.42l7.063 7a1 1 0 00.704.29z" fill="#335EEA" opacity=".3"/><path d="M12.586 12l-1.414-1.414a1 1 0 111.414-1.414L14 10.586l1.414-1.414a1 1 0 111.414 1.414L15.414 12l1.414 1.414a1 1 0 11-1.414 1.414L14 13.414l-1.414 1.414a1 1 0 11-1.414-1.414L12.586 12z" fill="#335EEA"/></g></svg>
